lib/flags/l/634.svg

<svg xmlns="http://www.w3.org/2000/svg" fill="none" viewBox="0 0 32 24"><mask id="634_svg__a" width="32" height="24" x="0" y="0" mask-type="alpha" maskUnits="userSpaceOnUse"><path fill="#fff" d="M0 0H32V24H0z"/></mask><g mask="url(#634_svg__a)"><path fill="#B61C49" d="M0 0H32V24H0z"/><path fill="#F7FCFF" fill-rule="evenodd" d="M0 0H6.79999L12 2L6.79999 4L12 6L6.79999 8L12 10L6.79999 12L12 14L6.79999 16L12 18L6.79999 20L12 22L6.79999 24H0V0Z" clip-rule="evenodd"/></g></svg>

<svg xmlns="http://www.w3.org/2000/svg" fill="none" viewBox="0 0 32 24"><mask id="634_svg__a" width="32" height="24" x="0" y="0" maskUnits="userSpaceOnUse"><path fill="#fff" d="M0 0h32v24H0z"/></mask><g mask="url(#634_svg__a)"><path fill="#B61C49" d="M0 0h32v24H0z"/><path fill="#F7FCFF" fill-rule="evenodd" d="M0 0h6.8L12 2 6.8 4 12 6 6.8 8l5.2 2-5.2 2 5.2 2-5.2 2 5.2 2-5.2 2 5.2 2-5.2 2H0V0z" clip-rule="evenodd"/></g></svg>
